X: 30492
T: BALL DANCE
C:
%R: jig
B: Elias Howe "The Musician's Companion" Part 3 1844 p.49 #2
S: http://imslp.org/wiki/The_Musician's_Companion_(Howe,_Elias)
S: https://archive.org/stream/firstthirdpartof03howe/#page/66/mode/1up
Z: 2015 John Chambers <jc:trillian.mit.edu>
M: 6/8
L: 1/8
K: G
% - - - - - - - - - - - - - - - - - - - - - - - - -
A |\
d>cB d>cB | e2e d2z | efg dcB | cAd G2 :: A |\
B3   d3   | cAd B2G | B3  d3  | cAd G2 :|
% - - - - - - - - - - - - - - - - - - - - - - - - -
